X:1
T:Calvary
T:Calvary
T:John Robson Sweney
T:William McKendree Darwood, 1876
T:Public Domain Courtesy of the Cyber Hymnal™
T:Public Domain Courtesy of the Cyber Hymnal™
C:John Robson Sweney
Z:Public Domain
Z:Courtesy of the Cyber Hymnal™
%%score ( 1 2 ) ( 3 4 )
L:1/8
Q:1/4=100
M:4/4
K:Bb
V:1 treble 
V:2 treble 
V:3 bass 
V:4 bass 
V:1
 z3/2 d/ c>B | (z3/2 F>)DF>B x3 | (z3/2 A>)ed>c x3 | (z3/2 G>)AG>F x3 | (z3/2 D>)dc>B x3 | %5
w: 1.~On Cal- vr’y’s|* brow my Sav-|* ior died, ’Twas|* * there *|* my Lord was|
w: 2.~’Mid rend- ing|* rocks and dark-|* ening skies, My|* * Sav- *|* ior bows His|
w: 3.~O Je- sus,|* Lord, how can|* it be, That|* * Thou *|* shouldst give Thy|
 (z3/2 [DF]>)DF>B x5/2 | z3/2 [EG]>[Ge][Fd]>[=E^c] x5/2 | [Fd]4- [Fd]>[FB] [FA]>[Ec] | [DB]6 || %9
w: * cru- ci- fied;|* ’Twas * on|* * the cross He|bled|
w: * head and dies;|* The * op-|* * ening veil re-|veals|
w: * life for me,|* To * bear|* * the cross and|a-|
"^Refrain" F2 | [Ec]>[D=B] [Ec]4 [Fd]2 | [DB]>[EG] [DF]4 [DF]2 | [EG][EG][Ge][Fd] [Gc]2 [GB]2 | %13
w: for|me, And pur- chased|there my par- don|free. * * * * *|
w: the|way To Heav- en’s|joys and end- less|day. O Cal- va- ry! dark|
w: go-|ny In that dread|hour on Cal- va-|ry! * * * * *|
 c6 F2 !fermata!F2 | [Fd]>[Ec] [DB]4 [FA]2 | [EG]>[GB] [Ge]4 [EG]2 | %16
w: |||
w: Cal- va- ry!|Where Je- sus shed|His blood for me;|
w: |||
 [DF]3 [FB] [FA][FB] [Fd]>[Ec] | [DB]4 |] %18
w: ||
w: O Cal- va- ry! blest Cal-|va-|
w: ||
V:2
 x4 | (F4- D<D D/ D2) | (A4- E<E E/ E2) | (G4- E<E E/ E2) | (D4- B,<B, B,/ B,2) | F4- D<D D/ x3/2 | %6
 G4- =E<E E/ x3/2 | x8 | x6 || F2 | x8 | x8 | x8 | ([F-A]=E _E2) F2 x4 | x8 | x8 | x8 | x4 |] %18
V:3
 z2 B,,2- | B,,3/2 [B,,B,]<[B,,B,][B,,B,]/ [B,,B,]2 B,,2 x/ | C,3/2 [C,F,]<[C,F,][C,F,]/ z3/2 x3 | %3
w: ~|* On Cal- v’ry’s brow ~|~ my Sav- ior|
 D,3/2 [D,F,]<[F,A,][F,A,]/ [F,A,]2 z2 x/ | B,,3/2 [B,,F,]<[B,,F,][B,,F,]/ [B,,F,]2 B,,2- x/ | %5
w: died ~ ~ ~ ’Twas|there my Lord ~ was cru-|
 B,,3/2 [B,,B,]<[B,,B,][B,,B,]/ [B,,B,]3/2 z/ B,,2 | E,3/2 [E,B,]<[E,B,][E,B,]/ [E,B,]>E, F,2- | %7
w: * ci- fied ~ ~ ’Twas|on the cross ~ He bled for|
 F,>[F,B,][F,B,]>[F,B,] [F,B,]>[F,D] [F,C]>[F,A,] | [B,,B,]6 || F,2 | [F,A,]>[F,^G,] [F,A,]4 F,2 | %11
w: * me, ~ ~ ~ And pur- chased|there|||
 [B,,F,]>[B,,B,] [B,,B,]4 [B,,B,]2 | [E,B,][E,B,][C,C][D,B,] [E,E]2 [=E,C]2 | %13
w: ||
 (C[G,B,] !fermata![A,C]2) F,2 x4 | [B,,B,]>[B,,F,] [B,,F,]4 [D,B,]2 | %15
w: ||
 [E,B,]>[E,B,] [E,B,]4 [E,B,]2 | [F,B,]3 [F,D] [F,E][F,D] [F,B,]>[F,A,] | [B,,F,B,]4 |] %18
w: |||
V:4
 x4 | x17/2 | x4 [C,F,]2 C,<D,E,/ | x17/2 | x17/2 | x8 | x8 | x8 | x6 || F,2 | x6 F,2 | x8 | x8 | %13
 [F,A,]3 F,2 x5 | x8 | x8 | x8 | x4 |] %18

